X:275
T: ES KANN JA NICHT IMMER SO BLEIBEN
N: B0326
O: Europa, Mitteleuropa, Deutschland
R: Trink - Lied
M: 6/4
L: 1/8
K: G
D2 | B3BB2B2A2B2 | d4c2B4
B2 | A2d2A2G2F2E2 | D8z2
D2 | D2E2F2G2A2B2 | c6A4
d2 | G2G2G2A2G2F2 | d6e2c2
A2 | G2G2G2A2G2F2 | G8z2

